X:350
T:The Other Three Jolly Sheepskins
R:polka 16 reel
C:Trad
S:John Locke
B:Opus Pocus - John Kirkpatrick & Sue Harris 1988 Dragonfly Music
Z:P J Headford 2005
M:4/4
L:1/8
Q:2/4=80
K:A
|:ABcd efec|BGEG BGEG|ABcd efec|BG ((3EFG) A2A2:|]
|:fgag fgag|fgaf b2ag|f^efg f2=e2|BcdB A2A2:|]

